suite-common/icons/assets/icons/binary.svg

<svg xmlns="http://www.w3.org/2000/svg" viewBox="0 0 24 25">
  <path fill-rule="evenodd" d="M5.44 1.077 3.62 1.1l-.343.165c-.579.278-.933.667-1.169 1.283l-.088.232-.012 9.18c-.012 9.829-.003 10.41.165 10.773.221.479.653.915 1.117 1.127.193.089.316.11.838.144.381.024 3.553.035 8.392.028l7.78-.012.234-.089a2.27 2.27 0 0 0 1.336-1.316l.11-.275V7.26l-.109-.273a3 3 0 0 0-.241-.469c-.133-.197-3.608-4.043-4.211-4.659-.352-.36-.642-.564-.979-.688-.215-.079-.328-.081-4.7-.099a579 579 0 0 0-6.3.005m13.166 4.195 1.447 1.588-1.393.011c-1.581.011-1.573.013-1.8-.308l-.12-.17-.011-1.586-.01-1.587.221.232c.121.128.871.947 1.666 1.82m-6.408 3.811c.733.118 1.362.753 1.589 1.6.081.305.093 1.274.02 1.657-.058.302-.314.823-.525 1.066a1.94 1.94 0 0 1-1.832.62c-.729-.155-1.23-.633-1.516-1.446-.108-.305-.113-.354-.113-1.04-.001-.6.012-.757.074-.94.389-1.141 1.225-1.692 2.303-1.517m4.305.001c.544.099 1.052.5 1.348 1.063.234.446.279.716.259 1.533-.015.611-.028.73-.109.938-.313.803-.802 1.251-1.546 1.412-.783.17-1.66-.255-2.055-.996-.246-.462-.287-.64-.309-1.334-.024-.787.013-1.009.252-1.493.211-.429.559-.816.863-.961a2.2 2.2 0 0 1 1.297-.162M8.2 11.02v1.9h1.12V14H5.96v-1.08h1.12v-2.24H5.96V9.647l.503-.014c.576-.015.617-.037.617-.341V9.12H8.2zm3.34-.824c-.446.207-.707.829-.646 1.541.045.53.229.911.535 1.105.345.218.608.193.912-.087.44-.406.571-1.379.274-2.035-.128-.282-.228-.388-.475-.505-.24-.113-.387-.118-.6-.019m4.308-.033c-.172.052-.436.32-.533.54-.195.44-.185 1.325.02 1.725.397.778 1.256.707 1.588-.131.08-.201.094-.309.095-.717.001-.564-.066-.834-.275-1.107a.83.83 0 0 0-.895-.31M7.965 15.08c.694.13 1.292.727 1.541 1.54.06.195.074.371.072.94-.001.652-.009.722-.109 1.023-.258.771-.8 1.29-1.504 1.439-.342.073-.533.072-.827-.003-.833-.214-1.401-.876-1.563-1.819-.076-.447-.054-1.159.048-1.54.21-.785.787-1.397 1.475-1.564a2.2 2.2 0 0 1 .867-.016m4.475 1.94v1.9h1.12V20h-3.32v-1.08h1.12v-2.24h-1.12v-1.04h.462c.437 0 .467-.005.56-.098.072-.072.098-.142.098-.26v-.162h1.08zm4.28 0v1.9h1.12V20h-3.36v-1.08h1.12v-2.24h-1.12v-1.032l.494-.014c.586-.017.626-.037.626-.319v-.195h1.12zm-9.353-.86c-.644.152-.962 1.358-.581 2.206.124.278.38.529.608.597.346.104.718-.112.923-.534.226-.466.253-1.008.08-1.571-.101-.325-.368-.626-.617-.694-.179-.049-.223-.049-.413-.004"/>
</svg>

<svg xmlns="http://www.w3.org/2000/svg" viewBox="0 0 24 25"><path d="M5.440 1.077 L 3.620 1.100 3.277 1.265 C 2.698 1.543,2.344 1.932,2.108 2.548 L 2.020 2.780 2.008 11.960 C 1.996 21.789,2.005 22.370,2.173 22.733 C 2.394 23.212,2.826 23.648,3.290 23.860 C 3.483 23.949,3.606 23.970,4.128 24.004 C 4.509 24.028,7.681 24.039,12.520 24.032 L 20.300 24.020 20.534 23.931 C 21.164 23.691,21.618 23.243,21.870 22.615 L 21.980 22.340 21.980 14.800 L 21.980 7.260 21.871 6.987 C 21.811 6.837,21.702 6.626,21.630 6.518 C 21.497 6.321,18.022 2.475,17.419 1.859 C 17.067 1.499,16.777 1.295,16.440 1.171 C 16.225 1.092,16.112 1.090,11.740 1.072 C 9.276 1.063,6.441 1.065,5.440 1.077 M18.606 5.272 L 20.053 6.860 18.660 6.871 C 17.079 6.882,17.087 6.884,16.860 6.563 L 16.740 6.393 16.729 4.807 L 16.719 3.220 16.940 3.452 C 17.061 3.580,17.811 4.399,18.606 5.272 M12.198 9.083 C 12.931 9.201,13.560 9.836,13.787 10.683 C 13.868 10.988,13.880 11.957,13.807 12.340 C 13.749 12.642,13.493 13.163,13.282 13.406 C 12.834 13.922,12.114 14.166,11.450 14.026 C 10.721 13.871,10.220 13.393,9.934 12.580 C 9.826 12.275,9.821 12.226,9.821 11.540 C 9.820 10.940,9.833 10.783,9.895 10.600 C 10.284 9.459,11.120 8.908,12.198 9.083 M16.503 9.084 C 17.047 9.183,17.555 9.584,17.851 10.147 C 18.085 10.593,18.130 10.863,18.110 11.680 C 18.095 12.291,18.082 12.410,18.001 12.618 C 17.688 13.421,17.199 13.869,16.455 14.030 C 15.672 14.200,14.795 13.775,14.400 13.034 C 14.154 12.572,14.113 12.394,14.091 11.700 C 14.067 10.913,14.104 10.691,14.343 10.207 C 14.554 9.778,14.902 9.391,15.206 9.246 C 15.583 9.065,16.071 9.004,16.503 9.084 M8.200 11.020 L 8.200 12.920 8.760 12.920 L 9.320 12.920 9.320 13.460 L 9.320 14.000 7.640 14.000 L 5.960 14.000 5.960 13.460 L 5.960 12.920 6.520 12.920 L 7.080 12.920 7.080 11.800 L 7.080 10.680 6.520 10.680 L 5.960 10.680 5.960 10.163 L 5.960 9.647 6.463 9.633 C 7.039 9.618,7.080 9.596,7.080 9.292 L 7.080 9.120 7.640 9.120 L 8.200 9.120 8.200 11.020 M11.540 10.196 C 11.094 10.403,10.833 11.025,10.894 11.737 C 10.939 12.267,11.123 12.648,11.429 12.842 C 11.774 13.060,12.037 13.035,12.341 12.755 C 12.781 12.349,12.912 11.376,12.615 10.720 C 12.487 10.438,12.387 10.332,12.140 10.215 C 11.900 10.102,11.753 10.097,11.540 10.196 M15.848 10.163 C 15.676 10.215,15.412 10.483,15.315 10.703 C 15.120 11.143,15.130 12.028,15.335 12.428 C 15.732 13.206,16.591 13.135,16.923 12.297 C 17.003 12.096,17.017 11.988,17.018 11.580 C 17.019 11.016,16.952 10.746,16.743 10.473 C 16.528 10.190,16.169 10.066,15.848 10.163 M7.965 15.080 C 8.659 15.210,9.257 15.807,9.506 16.620 C 9.566 16.815,9.580 16.991,9.578 17.560 C 9.577 18.212,9.569 18.282,9.469 18.583 C 9.211 19.354,8.669 19.873,7.965 20.022 C 7.623 20.095,7.432 20.094,7.138 20.019 C 6.305 19.805,5.737 19.143,5.575 18.200 C 5.499 17.753,5.521 17.041,5.623 16.660 C 5.833 15.875,6.410 15.263,7.098 15.096 C 7.352 15.034,7.686 15.028,7.965 15.080 M12.440 17.020 L 12.440 18.920 13.000 18.920 L 13.560 18.920 13.560 19.460 L 13.560 20.000 11.900 20.000 L 10.240 20.000 10.240 19.460 L 10.240 18.920 10.800 18.920 L 11.360 18.920 11.360 17.800 L 11.360 16.680 10.800 16.680 L 10.240 16.680 10.240 16.160 L 10.240 15.640 10.702 15.640 C 11.139 15.640,11.169 15.635,11.262 15.542 C 11.334 15.470,11.360 15.400,11.360 15.282 L 11.360 15.120 11.900 15.120 L 12.440 15.120 12.440 17.020 M16.720 17.020 L 16.720 18.920 17.280 18.920 L 17.840 18.920 17.840 19.460 L 17.840 20.000 16.160 20.000 L 14.480 20.000 14.480 19.460 L 14.480 18.920 15.040 18.920 L 15.600 18.920 15.600 17.800 L 15.600 16.680 15.040 16.680 L 14.480 16.680 14.480 16.164 L 14.480 15.648 14.974 15.634 C 15.560 15.617,15.600 15.597,15.600 15.315 L 15.600 15.120 16.160 15.120 L 16.720 15.120 16.720 17.020 M7.367 16.160 C 6.723 16.312,6.405 17.518,6.786 18.366 C 6.910 18.644,7.166 18.895,7.394 18.963 C 7.740 19.067,8.112 18.851,8.317 18.429 C 8.543 17.963,8.570 17.421,8.397 16.858 C 8.296 16.533,8.029 16.232,7.780 16.164 C 7.601 16.115,7.557 16.115,7.367 16.160 " stroke="none" fill-rule="evenodd" fill="black"></path></svg>
